dist/img/events/prev.svg

<svg width="49" height="48" viewBox="0 0 49 48" fill="none" xmlns="http://www.w3.org/2000/svg">
<circle cx="24" cy="24" r="24" transform="matrix(-1 0 0 1 48.5 0)" fill="#FFDE40"/>
<path d="M35.75 22.5C36.5784 22.5 37.25 23.1716 37.25 24C37.25 24.8284 36.5784 25.5 35.75 25.5L35.75 22.5ZM12.1893 25.0607C11.6036 24.4749 11.6036 23.5251 12.1893 22.9393L21.7353 13.3934C22.3211 12.8076 23.2708 12.8076 23.8566 13.3934C24.4424 13.9792 24.4424 14.9289 23.8566 15.5147L15.3713 24L23.8566 32.4853C24.4424 33.0711 24.4424 34.0208 23.8566 34.6066C23.2708 35.1924 22.3211 35.1924 21.7353 34.6066L12.1893 25.0607ZM35.75 25.5L13.25 25.5L13.25 22.5L35.75 22.5L35.75 25.5Z" fill="#21201F"/>
</svg>

<svg width="49" height="48" fill="none" xmlns="http://www.w3.org/2000/svg"><circle cx="24" cy="24" r="24" transform="matrix(-1 0 0 1 48.5 0)" fill="#FFDE40"/><path d="M35.75 22.5a1.5 1.5 0 010 3v-3zm-23.56 2.56a1.5 1.5 0 010-2.12l9.545-9.547a1.5 1.5 0 112.122 2.122L15.37 24l8.486 8.485a1.5 1.5 0 11-2.122 2.122L12.19 25.06zm23.56.44h-22.5v-3h22.5v3z" fill="#21201F"/></svg>
